**kern	**kern	**dynam
*part1	*part1	*part1
*staff2	*staff1	*
*I"Piano	*	*
*clefF4	*clefG2	*
*k[b-e-a-d-g-]	*k[b-e-a-d-g-]	*
=1	=1	=1
*	*^	*
1E-X^ 1F	1e-X^ 1f	8re	.
.	.	4e- 4f	.
*^	*	*	*
.	4C	.	.	.
.	.	.	4c	.
.	4AAn	.	.	.
.	.	.	4An<	.
.	4FF	.	.	.
.	.	.	8F<)	.
*	*	*v	*v	*
=	=	=	=
4En^	1FF	8r	.
.	.	(4B- 4d- 4en	.
4F	.	.	.
.	.	4B- 4d- 4f	.
4G-	.	.	.
.	.	4B- 4d- 4g-	.
4F	.	.	.
.	.	8B- 8d- 8f	.
*v	*v	*	*
=	=	=
*	*^	*
1E-X^ 1F	1e-X^ 1f	8re	.
.	.	4e- 4f	.
*^	*	*	*
.	4C	.	.	.
.	.	.	4c	.
.	4AAn	.	.	.
.	.	.	4An<	.
.	4FF	.	.	.
.	.	.	8F<)	.
*v	*v	*	*	*
*	*v	*v	*
=	=	=
!	!LO:TX:b:i:t=dimin.	!
4D-	8r	.
.	(4d-	.
4C	.	.
.	4c	.
4BB-	.	.
.	4B-	.
4AA-X	.	.
.	[8A-X	p
=	=	=
4GG-	8A-]	>
.	4G-<	.
4FF	.	.
.	4F<	.
4EE-	.	.
.	4E-<	.
4GG-	.	.
.	[8G-<	.
=	=	=
4FF	8G-]<	] pp
.	4F<	.
4EE-	.	.
.	4E-<	.
4DD-	.	.
.	4D-<	.
4CC	.	.
.	8C<	.
=	=	=
[1BBB- [1BB-	1ryy	.
=	=	=
*^	*	*
2BB-])	2BBB-]	1ryy	.
2rGG	2rEE	.	.
*v	*v	*	*
==	==	==
*-	*-	*-
!!!system-decoration: {(s1,s2)}
!!!RDF**kern: < = below
